src/icons/lesson.svg

<svg width="24" height="24" viewBox="0 0 24 24" fill="none" xmlns="http://www.w3.org/2000/svg">
<path fill-rule="evenodd" clip-rule="evenodd" d="M8 4.5C8 6.433 6.433 8 4.5 8C2.567 8 1 6.433 1 4.5C1 2.567 2.567 1 4.5 1C6.433 1 8 2.567 8 4.5ZM6 4.5C6 5.32843 5.32843 6 4.5 6C3.67157 6 3 5.32843 3 4.5C3 3.67157 3.67157 3 4.5 3C5.32843 3 6 3.67157 6 4.5Z" fill="black"/>
<path d="M10 4V6H19V17H17V16H13V17H10V19H23V17H21V4H10Z" fill="black"/>
<path d="M5 23V21H1V23H5Z" fill="black"/>
<path d="M11 21H7V23H11V21Z" fill="black"/>
<path d="M13 21H17V23H13V21Z" fill="black"/>
<path d="M19 21V23H23V21H19Z" fill="black"/>
<path fill-rule="evenodd" clip-rule="evenodd" d="M3 9C1.89543 9 1 9.89543 1 11V19H8V11H12V9H3ZM3 11V17H6V11H3Z" fill="black"/>
</svg>

<svg xmlns="http://www.w3.org/2000/svg" width="24" height="24" fill="none"><path fill="currentColor" fill-rule="evenodd" d="M8 4.5a3.5 3.5 0 1 1-7 0 3.5 3.5 0 0 1 7 0m-2 0a1.5 1.5 0 1 1-3 0 1.5 1.5 0 0 1 3 0" clip-rule="evenodd"/><path fill="currentColor" d="M10 4v2h9v11h-2v-1h-4v1h-3v2h13v-2h-2V4zM5 23v-2H1v2zm6-2H7v2h4zm2 0h4v2h-4zm6 0v2h4v-2z"/><path fill="currentColor" fill-rule="evenodd" d="M3 9a2 2 0 0 0-2 2v8h7v-8h4V9zm0 2v6h3v-6z" clip-rule="evenodd"/></svg>
